img/parceiros/flexblog.svg

<svg width="165" height="38" viewBox="0 0 165 38" fill="none" xmlns="http://www.w3.org/2000/svg">
<g clip-path="url(#clip0_12:8)">
<path d="M2.70439 29.072C1.88744 29.072 1.22543 28.82 0.718354 28.316C0.239451 27.812 0 27.154 0 26.342V1.772C0 0.96 0.225366 0.33 0.676098 -0.118C1.155 -0.566 1.80293 -0.79 2.61988 -0.79H17.4518C19.1702 -0.79 20.0294 -0.0619999 20.0294 1.394C20.0294 2.822 19.1702 3.536 17.4518 3.536H5.36652V11.6H16.6066C18.3251 11.6 19.1843 12.328 19.1843 13.784C19.1843 15.212 18.3251 15.926 16.6066 15.926H5.36652V26.342C5.36652 27.154 5.12707 27.812 4.64817 28.316C4.16927 28.82 3.52134 29.072 2.70439 29.072ZM27.7814 29.072C27.0208 29.072 26.3869 28.862 25.8798 28.442C25.4009 27.994 25.1615 27.364 25.1615 26.552V1.478C25.1615 0.666 25.4009 0.05 25.8798 -0.37C26.3869 -0.79 27.0208 -1 27.7814 -1C28.542 -1 29.1758 -0.79 29.6829 -0.37C30.19 0.05 30.4435 0.666 30.4435 1.478V26.552C30.4435 27.364 30.19 27.994 29.6829 28.442C29.1758 28.862 28.542 29.072 27.7814 29.072ZM52.2436 23.192C52.7225 23.192 53.1028 23.374 53.3845 23.738C53.6944 24.102 53.8494 24.592 53.8494 25.208C53.8494 26.076 53.3282 26.804 52.2859 27.392C51.3281 27.924 50.2435 28.358 49.0322 28.694C47.8208 29.002 46.6658 29.156 45.5672 29.156C42.243 29.156 39.6091 28.204 37.6653 26.3C35.7215 24.396 34.7496 21.792 34.7496 18.488C34.7496 16.388 35.1722 14.526 36.0173 12.902C36.8624 11.278 38.0456 10.018 39.5668 9.122C41.1162 8.226 42.8628 7.778 44.8066 7.778C46.6658 7.778 48.2856 8.184 49.666 8.996C51.0464 9.808 52.1169 10.956 52.8775 12.44C53.6381 13.924 54.0184 15.674 54.0184 17.69C54.0184 18.894 53.4831 19.496 52.4127 19.496H39.9471C40.1161 21.428 40.6655 22.856 41.5951 23.78C42.5247 24.676 43.8769 25.124 45.6517 25.124C46.5531 25.124 47.3419 25.012 48.018 24.788C48.7223 24.564 49.5111 24.256 50.3844 23.864C51.2295 23.416 51.8492 23.192 52.2436 23.192ZM44.9323 11.474C43.4956 11.474 42.3406 11.922 41.4673 12.818C40.6222 13.714 40.1151 15.002 39.9461 16.682H49.496C49.4396 14.974 49.0171 13.686 48.2283 12.818C47.4395 11.922 46.3409 11.474 44.9323 11.474ZM75.8427 24.956C76.3497 25.46 76.6033 26.034 76.6033 26.678C76.6033 27.294 76.3638 27.854 75.8849 28.358C75.406 28.834 74.8426 29.072 74.1947 29.072C73.4904 29.072 72.8847 28.778 72.3777 28.19L66.4195 21.638L60.4614 28.19C59.9262 28.75 59.3205 29.03 58.6444 29.03C58.0247 29.03 57.4753 28.792 56.9964 28.316C56.5175 27.84 56.2781 27.294 56.2781 26.678C56.2781 26.034 56.5316 25.46 57.0387 24.956L63.2081 18.278L57.3767 11.978C56.8697 11.474 56.6161 10.9 56.6161 10.256C56.6161 9.612 56.8556 9.066 57.3345 8.618C57.8134 8.142 58.3627 7.904 58.9825 7.904C59.6586 7.904 60.2642 8.184 60.7995 8.744L66.4195 14.876L72.0396 8.744C72.5748 8.184 73.1805 7.904 73.8566 7.904C74.5045 7.904 75.0539 8.142 75.5046 8.618C75.9835 9.066 76.223 9.612 76.223 10.256C76.223 10.9 75.9694 11.474 75.4623 11.978L69.631 18.278L75.8427 24.956ZM99.2203 13.532C100.939 14.008 102.263 14.876 103.192 16.136C104.15 17.396 104.629 18.936 104.629 20.756C104.629 23.276 103.714 25.25 101.882 26.678C100.08 28.106 97.5864 28.82 94.4031 28.82H83.5011C82.6841 28.82 82.0362 28.596 81.5573 28.148C81.1066 27.7 80.8812 27.07 80.8812 26.258V1.772C80.8812 0.96 81.1066 0.33 81.5573 -0.118C82.0362 -0.566 82.6841 -0.79 83.5011 -0.79H93.9796C97.0784 -0.79 99.501 -0.104 101.248 1.268C103.022 2.612 103.91 4.502 103.91 6.938C103.91 8.506 103.487 9.864 102.642 11.012C101.825 12.16 100.684 13 99.2193 13.532H99.2203ZM86.2055 11.684H93.0932C96.8399 11.684 98.7133 10.298 98.7133 7.526C98.7133 6.126 98.2484 5.09 97.3188 4.418C96.3892 3.746 94.9806 3.41 93.0932 3.41H86.2055V11.684ZM93.8116 24.62C95.7835 24.62 97.2202 24.27 98.1217 23.57C99.0231 22.87 99.4739 21.778 99.4739 20.294C99.4739 18.81 99.0091 17.704 98.0794 16.976C97.178 16.248 95.7553 15.884 93.8116 15.884H86.2055V24.62H93.8116ZM111.881 29.072C111.12 29.072 110.487 28.862 109.98 28.442C109.501 27.994 109.261 27.364 109.261 26.552V1.478C109.261 0.666 109.501 0.05 109.98 -0.37C110.487 -0.79 111.12 -1 111.881 -1C112.642 -1 113.276 -0.79 113.783 -0.37C114.29 0.05 114.543 0.666 114.543 1.478V26.552C114.543 27.364 114.29 27.994 113.783 28.442C113.276 28.862 112.642 29.072 111.881 29.072ZM129.413 29.156C127.301 29.156 125.441 28.722 123.836 27.854C122.258 26.986 121.033 25.74 120.159 24.116C119.286 22.492 118.849 20.602 118.849 18.446C118.849 16.29 119.286 14.414 120.159 12.818C121.033 11.194 122.258 9.948 123.836 9.08C125.441 8.212 127.301 7.778 129.413 7.778C131.526 7.778 133.371 8.212 134.949 9.08C136.53 9.92302 137.813 11.2277 138.625 12.818C139.498 14.414 139.935 16.29 139.935 18.446C139.935 20.602 139.498 22.492 138.625 24.116C137.813 25.7063 136.53 27.011 134.949 27.854C133.371 28.722 131.526 29.156 129.413 29.156ZM129.371 25.082C131.089 25.082 132.399 24.522 133.301 23.402C134.202 22.282 134.653 20.63 134.653 18.446C134.653 16.29 134.202 14.652 133.301 13.532C132.399 12.384 131.104 11.81 129.413 11.81C127.723 11.81 126.413 12.384 125.484 13.532C124.582 14.652 124.131 16.29 124.131 18.446C124.131 20.63 124.582 22.282 125.484 23.402C126.385 24.522 127.681 25.082 129.371 25.082ZM161.79 7.862C162.578 7.862 163.212 8.086 163.691 8.534C164.17 8.982 164.409 9.584 164.409 10.34V26.93C164.409 30.15 163.508 32.586 161.705 34.238C159.902 35.89 157.24 36.716 153.719 36.716C150.648 36.716 148.084 36.142 146.028 34.994C144.986 34.378 144.465 33.636 144.465 32.768C144.465 32.152 144.605 31.662 144.887 31.298C145.197 30.934 145.591 30.752 146.07 30.752C146.324 30.752 146.634 30.808 147 30.92C147.366 31.06 147.746 31.214 148.141 31.382C149.155 31.802 150.056 32.124 150.845 32.348C151.662 32.572 152.592 32.684 153.634 32.684C157.324 32.684 159.17 30.892 159.17 27.308V24.62C158.55 25.768 157.648 26.664 156.465 27.308C155.282 27.924 153.93 28.232 152.409 28.232C150.606 28.232 149 27.812 147.591 26.972C146.211 26.104 145.127 24.9 144.338 23.36C143.549 21.82 143.155 20.042 143.155 18.026C143.155 16.01 143.535 14.232 144.296 12.692C145.084 11.124 146.183 9.92 147.591 9.08C149 8.212 150.606 7.778 152.409 7.778C153.93 7.778 155.282 8.1 156.465 8.744C157.618 9.33016 158.562 10.2537 159.17 11.39V10.298C159.17 9.57 159.409 8.982 159.888 8.534C160.367 8.086 161.001 7.862 161.79 7.862ZM153.803 24.158C155.493 24.158 156.803 23.612 157.733 22.52C158.691 21.428 159.17 19.93 159.17 18.026C159.17 16.094 158.691 14.582 157.733 13.49C156.803 12.398 155.493 11.852 153.803 11.852C152.141 11.852 150.831 12.398 149.873 13.49C148.916 14.582 148.437 16.094 148.437 18.026C148.437 19.93 148.916 21.428 149.873 22.52C150.831 23.612 152.141 24.158 153.803 24.158Z" fill="#9C9C9C"/>
</g>
<defs>
<clipPath id="clip0_12:8">
<rect width="165" height="38" fill="white"/>
</clipPath>
</defs>
</svg>

<svg width="165" height="38" fill="none" xmlns="http://www.w3.org/2000/svg">
  <g clip-path="url(#a)">
    <path d="M2.704 29.072c-.817 0-1.479-.252-1.986-.756C.24 27.812 0 27.154 0 26.342V1.772C0 .96.225.33.676-.118 1.155-.566 1.803-.79 2.62-.79h14.832c1.718 0 2.577.728 2.577 2.184 0 1.428-.859 2.142-2.577 2.142H5.367V11.6h11.24c1.718 0 2.577.728 2.577 2.184 0 1.428-.859 2.142-2.577 2.142H5.367v10.416c0 .812-.24 1.47-.719 1.974s-1.127.756-1.944.756Zm25.077 0c-.76 0-1.394-.21-1.901-.63-.48-.448-.718-1.078-.718-1.89V1.478c0-.812.239-1.428.718-1.848.507-.42 1.14-.63 1.901-.63.761 0 1.395.21 1.902.63.507.42.76 1.036.76 1.848v25.074c0 .812-.253 1.442-.76 1.89-.507.42-1.141.63-1.902.63Zm24.463-5.88c.478 0 .859.182 1.14.546.31.364.465.854.465 1.47 0 .868-.52 1.596-1.563 2.184-.958.532-2.043.966-3.254 1.302-1.211.308-2.366.462-3.465.462-3.324 0-5.958-.952-7.902-2.856s-2.915-4.508-2.915-7.812c0-2.1.422-3.962 1.267-5.586s2.029-2.884 3.55-3.78c1.55-.896 3.296-1.344 5.24-1.344 1.859 0 3.479.406 4.859 1.218 1.38.812 2.45 1.96 3.212 3.444.76 1.484 1.14 3.234 1.14 5.25 0 1.204-.535 1.806-1.605 1.806H39.947c.17 1.932.718 3.36 1.648 4.284.93.896 2.282 1.344 4.057 1.344.901 0 1.69-.112 2.366-.336a22.562 22.562 0 0 0 2.366-.924c.846-.448 1.465-.672 1.86-.672Zm-7.312-11.718c-1.436 0-2.591.448-3.465 1.344-.845.896-1.352 2.184-1.52 3.864h9.549c-.056-1.708-.479-2.996-1.268-3.864-.788-.896-1.887-1.344-3.296-1.344Zm30.91 13.482c.508.504.761 1.078.761 1.722 0 .616-.24 1.176-.718 1.68-.479.476-1.042.714-1.69.714-.705 0-1.31-.294-1.817-.882l-5.959-6.552-5.958 6.552c-.535.56-1.14.84-1.817.84-.62 0-1.169-.238-1.648-.714-.479-.476-.718-1.022-.718-1.638 0-.644.254-1.218.76-1.722l6.17-6.678-5.831-6.3c-.507-.504-.76-1.078-.76-1.722 0-.644.239-1.19.718-1.638.478-.476 1.028-.714 1.648-.714.676 0 1.281.28 1.817.84l5.62 6.132 5.62-6.132c.535-.56 1.14-.84 1.817-.84.647 0 1.197.238 1.648.714.479.448.718.994.718 1.638 0 .644-.254 1.218-.76 1.722l-5.832 6.3 6.212 6.678ZM99.22 13.532c1.719.476 3.043 1.344 3.972 2.604.958 1.26 1.437 2.8 1.437 4.62 0 2.52-.915 4.494-2.747 5.922-1.802 1.428-4.296 2.142-7.479 2.142H83.501c-.817 0-1.465-.224-1.944-.672-.45-.448-.676-1.078-.676-1.89V1.772c0-.812.226-1.442.676-1.89.48-.448 1.127-.672 1.944-.672H93.98c3.098 0 5.521.686 7.268 2.058 1.774 1.344 2.662 3.234 2.662 5.67 0 1.568-.423 2.926-1.268 4.074-.817 1.148-1.958 1.988-3.423 2.52h.001Zm-13.014-1.848h6.887c3.747 0 5.62-1.386 5.62-4.158 0-1.4-.465-2.436-1.394-3.108-.93-.672-2.338-1.008-4.226-1.008h-6.888v8.274Zm7.606 12.936c1.972 0 3.408-.35 4.31-1.05.901-.7 1.352-1.792 1.352-3.276 0-1.484-.465-2.59-1.395-3.318-.901-.728-2.324-1.092-4.267-1.092h-7.606v8.736h7.606Zm18.069 4.452c-.761 0-1.394-.21-1.901-.63-.479-.448-.719-1.078-.719-1.89V1.478c0-.812.24-1.428.719-1.848.507-.42 1.14-.63 1.901-.63.761 0 1.395.21 1.902.63.507.42.76 1.036.76 1.848v25.074c0 .812-.253 1.442-.76 1.89-.507.42-1.141.63-1.902.63Zm17.532.084c-2.112 0-3.972-.434-5.577-1.302-1.578-.868-2.803-2.114-3.677-3.738-.873-1.624-1.31-3.514-1.31-5.67s.437-4.032 1.31-5.628c.874-1.624 2.099-2.87 3.677-3.738 1.605-.868 3.465-1.302 5.577-1.302 2.113 0 3.958.434 5.536 1.302a8.745 8.745 0 0 1 3.676 3.738c.873 1.596 1.31 3.472 1.31 5.628s-.437 4.046-1.31 5.67a8.745 8.745 0 0 1-3.676 3.738c-1.578.868-3.423 1.302-5.536 1.302Zm-.042-4.074c1.718 0 3.028-.56 3.93-1.68.901-1.12 1.352-2.772 1.352-4.956 0-2.156-.451-3.794-1.352-4.914-.902-1.148-2.197-1.722-3.888-1.722-1.69 0-3 .574-3.929 1.722-.902 1.12-1.353 2.758-1.353 4.914 0 2.184.451 3.836 1.353 4.956.901 1.12 2.197 1.68 3.887 1.68Zm32.419-17.22c.788 0 1.422.224 1.901.672.479.448.718 1.05.718 1.806v16.59c0 3.22-.901 5.656-2.704 7.308-1.803 1.652-4.465 2.478-7.986 2.478-3.071 0-5.635-.574-7.691-1.722-1.042-.616-1.563-1.358-1.563-2.226 0-.616.14-1.106.422-1.47.31-.364.704-.546 1.183-.546.254 0 .564.056.93.168.366.14.746.294 1.141.462 1.014.42 1.915.742 2.704.966.817.224 1.747.336 2.789.336 3.69 0 5.536-1.792 5.536-5.376V24.62c-.62 1.148-1.522 2.044-2.705 2.688-1.183.616-2.535.924-4.056.924-1.803 0-3.409-.42-4.818-1.26-1.38-.868-2.464-2.072-3.253-3.612-.789-1.54-1.183-3.318-1.183-5.334 0-2.016.38-3.794 1.141-5.334.788-1.568 1.887-2.772 3.295-3.612 1.409-.868 3.015-1.302 4.818-1.302 1.521 0 2.873.322 4.056.966a6.309 6.309 0 0 1 2.705 2.646v-1.092c0-.728.239-1.316.718-1.764.479-.448 1.113-.672 1.902-.672Zm-7.987 16.296c1.69 0 3-.546 3.93-1.638.958-1.092 1.437-2.59 1.437-4.494 0-1.932-.479-3.444-1.437-4.536-.93-1.092-2.24-1.638-3.93-1.638-1.662 0-2.972.546-3.93 1.638-.957 1.092-1.436 2.604-1.436 4.536 0 1.904.479 3.402 1.436 4.494.958 1.092 2.268 1.638 3.93 1.638Z" fill="#9C9C9C"/>
  </g>
  <defs>
    <clipPath id="a">
      <path fill="#fff" d="M0 0h165v38H0z"/>
    </clipPath>
  </defs>
</svg>
